Suru++-Ubuntu/apps/scalable/org.gabmus.hydrapaper.svg

<svg width="256" height="256" version="1.1" viewBox="0 0 256 256" xmlns="http://www.w3.org/2000/svg" xmlns:xlink="http://www.w3.org/1999/xlink">
 <defs>
  <clipPath id="clipPath989">
   <path d="m115.03124 43.99999c-72.648636 1e-5 -83.031226 10.35662-83.031236 82.93751v58.12499c0 72.5806 10.38261 82.9375 83.031236 82.9375h73.93752c72.64864 0 83.03124-10.35692 83.03124-82.9375v-58.12499c0-72.58089-10.3826-82.9375-83.03125-82.9375z" style="fill:url(#linearGradient993)"/>
  </clipPath>
  <filter id="filter931" x="-.01" y="-.01" width="1.023" height="1.025" style="color-interpolation-filters:sRGB">
   <feGaussianBlur stdDeviation=".423"/>
  </filter>
  <linearGradient id="linearGradient971" x1="184" x2="232" y1="76" y2="124" gradientTransform="translate(0,4)" gradientUnits="userSpaceOnUse" xlink:href="#linearGradient969"/>
  <linearGradient id="linearGradient969">
   <stop style="stop-color:#000000;stop-opacity:0" offset="0"/>
   <stop style="stop-color:#000000" offset=".49"/>
   <stop style="stop-color:#000000;stop-opacity:0" offset="1"/>
  </linearGradient>
  <linearGradient id="linearGradient1108" x1="296" x2="296" y1="-212" y2="236" gradientUnits="userSpaceOnUse">
   <stop style="stop-color:#ffffff" offset="0"/>
   <stop style="stop-color:#ffffff;stop-opacity:.09803922" offset=".125"/>
   <stop style="stop-color:#000000;stop-opacity:.09803922" offset=".925"/>
   <stop style="stop-color:#000000;stop-opacity:.49803922" offset="1"/>
  </linearGradient>
  <clipPath id="clipPath1082-3-3">
   <path d="M 361.9375,-212 C 507.2348,-212 528,-191.28677 528,-46.125 V 70.125 C 528,215.28618 507.2348,236 361.9375,236 H 214.0625 C 68.7652,236 48,215.28618 48,70.125 V -46.125 C 48,-191.28677 68.7652,-212 214.0625,-212 Z" style="fill:#8c59d9"/>
  </clipPath>
  <linearGradient id="linearGradient938" x1="32" x2="272" y1="156" y2="156" gradientTransform="matrix(-.34202014 .93969262 .93969262 .34202014 30.963035 -67.75648)" gradientUnits="userSpaceOnUse">
   <stop style="stop-color:#ae3343" offset="0"/>
   <stop style="stop-color:#e97c86" offset="1"/>
  </linearGradient>
  <filter id="filter1013" x="-.02" y="-.03" width="1.046" height="1.05" style="color-interpolation-filters:sRGB">
   <feGaussianBlur stdDeviation="2.32"/>
  </filter>
  <linearGradient id="linearGradient866" x1="32" x2="272" y1="156" y2="156" gradientTransform="matrix(-.29926763 .80459841 .82223109 .29284987 27.788656 -23.449984)" gradientUnits="userSpaceOnUse">
   <stop style="stop-color:#41ae33" offset="0"/>
   <stop style="stop-color:#7ce984" offset="1"/>
  </linearGradient>
  <linearGradient id="linearGradient906" x1="32" x2="272" y1="156" y2="156" gradientTransform="matrix(-.25651511 .68965578 .70476951 .25101418 24.614276 14.247441)" gradientUnits="userSpaceOnUse">
   <stop style="stop-color:#3380ae" offset="0"/>
   <stop style="stop-color:#7cc2e9" offset="1"/>
  </linearGradient>
 </defs>
 <path d="m162.53675 18.431977c72.64865 0 83.03125 10.356616 83.03125 82.937503v58.12501c0 72.58059-10.3826 82.9375-83.03125 82.9375h-73.937496c-72.648654 0-83.031254-10.35691-83.031254-82.9375v-58.12501c0-72.580887 10.3826-82.937503 83.031254-82.937503z" style="filter:url(#filter1013);opacity:.2"/>
 <path d="m88.599244 16.431982c-72.648636 1e-5 -83.03124 10.35661-83.03125 82.9375v58.125008c0 72.5806 10.382624 82.9375 83.03125 82.9375h73.937496c72.64864 0 83.03125-10.35692 83.03125-82.9375v-58.125008c0-1.00599-0.01-1.95528-0.0137-2.9375l-89.00388-80z" style="fill:url(#linearGradient938)"/>
 <path d="m230.90588 24.603857-194.67578 207.65625c12.45966 6.53045 31.491462 8.17188 60.369141 8.17188h73.937496c72.64864 0 83.03125-10.35692 83.03125-82.9375v-58.125008c0-43.730136-3.77655-64.867242-22.66211-74.765625z" style="fill:#ffffff;opacity:.05"/>
 <g transform="translate(-26.432006,-27.568018)" clip-path="url(#clipPath989)" style="enable-background:new">
  <path d="m182.98242 44c0.29365 69.88348 11.37588 80 83.01758 80h5.98633l0.01367-80z" style="filter:url(#filter931);opacity:.1"/>
  <path d="m182.98242 48c0.29365 69.88348 11.37588 80 83.01758 80h5.98633l0.01367-80z" style="fill:url(#linearGradient971);filter:url(#filter975);opacity:.4"/>
 </g>
 <path d="m156.55041 16.431982c0.29365 69.88348 11.37588 80 83.01758 80h5.98633z" style="fill:#faf8f6"/>
 <path d="m245.55432 96.431982c-0.29365-69.88348-11.37588-80-83.01758-80h-5.98633z" style="fill:#5d5d5d"/>
 <path d="m5.5683594 119.64844v37.8457c0 9.07258 0.1620989 17.17296 0.5878906 24.40234 0.2128959 3.6147 0.4922651 7.01124 0.8496094 10.20313 0.3573443 3.19188 0.793186 6.18021 1.3203125 8.97461 0.5271264 2.7944 1.1449452 5.39611 1.8671871 7.81836 0.722243 2.42224 1.547543 4.66482 2.490235 6.74023s2.002931 3.98242 3.191406 5.73633 2.505252 3.35478 3.964844 4.8125c1.459592 1.45773 3.062317 2.77212 4.818359 3.95898 1.756042 1.18687 3.666314 2.24616 5.744141 3.1875 2.077826 0.94135 4.323102 1.7652 6.748047 2.48633 2.424944 0.72114 5.028775 1.33898 7.826171 1.86524 2.797397 0.52626 5.787241 0.96165 8.982422 1.31836 3.195182 0.3567 6.596544 0.63518 10.214844 0.84765 7.236601 0.42496 15.344703 0.58594 24.425781 0.58594h54.316411c63.56757 0 72.65234-8.86759 72.65234-71.01367v-49.76953c0-0.86136-0.00872-1.67267-0.01172-2.51367l-77.87891-68.500004h-59.457027c-63.567557 8e-6 -72.652335 8.867326-72.652344 71.013674z" style="fill:url(#linearGradient866)"/>
 <g transform="matrix(.875 0 0 .85623571 -22.432006 10.960813)" clip-path="url(#clipPath989)" style="enable-background:new">
  <path d="m182.98242 44c0.29365 69.88348 11.37588 80 83.01758 80h5.98633l0.01367-80z" style="filter:url(#filter931);opacity:.1"/>
  <path d="m182.98242 48c0.29365 69.88348 11.37588 80 83.01758 80h5.98633l0.01367-80z" style="fill:url(#linearGradient971);filter:url(#filter975);opacity:.4"/>
 </g>
 <path d="m137.67761 48.635184c0.25694 59.836736 9.95389 68.498866 72.64038 68.498866h5.23804z" style="fill:#faf8f6"/>
 <path d="m215.55603 117.13405c-0.25694-59.83674-9.9539-68.498866-72.64039-68.498866h-5.23803z" style="fill:#5d5d5d"/>
 <path d="m5.5683594 136.9043v20.58984c0 9.07258 0.1620989 17.17296 0.5878906 24.40234 0.2128959 3.6147 0.4922651 7.01124 0.8496094 10.20313 0.3573443 3.19188 0.793186 6.18021 1.3203125 8.97461 0.5271264 2.7944 1.1449452 5.39611 1.8671871 7.81836 0.722243 2.42224 1.547543 4.66482 2.490235 6.74023s2.002931 3.98242 3.191406 5.73633 2.505252 3.35478 3.964844 4.8125c1.459592 1.45773 3.062317 2.77212 4.818359 3.95898 1.756042 1.18687 3.666314 2.24616 5.744141 3.1875 2.077826 0.94135 4.323102 1.7652 6.748047 2.48633 2.424944 0.72114 5.028775 1.33898 7.826171 1.86524 2.797397 0.52626 5.787241 0.96165 8.982422 1.31836 3.195182 0.3567 6.596544 0.63518 10.214844 0.84765 7.236601 0.42496 15.344703 0.58594 24.425781 0.58594h34.695311c54.48649 0 62.27344-7.60107 62.27344-60.86914v-42.6582c0-0.73831-0.00747-1.43539-0.00977-2.15625l-66.7539-58.712894h-50.962893c-54.486478 7e-6 -62.27343 7.600845-62.273438 60.869144z" style="fill:url(#linearGradient906)"/>
 <g transform="matrix(.75 0 0 .73391632 -18.432006 43.74241)" clip-path="url(#clipPath989)" style="enable-background:new">
  <path d="m182.98242 44c0.29365 69.88348 11.37588 80 83.01758 80h5.98633l0.01367-80z" style="filter:url(#filter931);opacity:.1"/>
  <path d="m182.98242 48c0.29365 69.88348 11.37588 80 83.01758 80h5.98633l0.01367-80z" style="fill:url(#linearGradient971);filter:url(#filter975);opacity:.4"/>
 </g>
 <path d="m118.80481 76.034728c0.22023 51.288632 8.5319 58.713312 62.26318 58.713312h4.48975z" style="fill:#faf8f6"/>
 <path d="m185.55774 134.74804c-0.22024-51.288633-8.53192-58.713312-62.26319-58.713312h-4.48974z" style="fill:#5d5d5d"/>
 <path transform="matrix(.5 0 0 .5 -18.432006 122.43199)" d="M 361.9375,-212 C 507.2348,-212 528,-191.28677 528,-46.125 V 70.125 C 528,215.28618 507.2348,236 361.9375,236 H 214.0625 C 68.7652,236 48,215.28618 48,70.125 V -46.125 C 48,-191.28677 68.7652,-212 214.0625,-212 Z" clip-path="url(#clipPath1082-3-3)" style="fill:none;opacity:.4;stroke-linecap:round;stroke-linejoin:round;stroke-width:8;stroke:url(#linearGradient1108)"/>
</svg>

<svg xmlns="http://www.w3.org/2000/svg" xmlns:xlink="http://www.w3.org/1999/xlink" width="256" height="256" version="1.1" viewBox="0 0 256 256">
 <defs>
  <linearGradient id="linearGradient914">
   <stop style="stop-color:#3380ae" offset="0"/>
   <stop style="stop-color:#7cc2e9" offset="1"/>
  </linearGradient>
  <linearGradient id="linearGradient874">
   <stop offset="0" style="stop-color:#41ae33"/>
   <stop offset="1" style="stop-color:#7ce984"/>
  </linearGradient>
  <clipPath id="clipPath989" clipPathUnits="userSpaceOnUse">
   <path style="fill:url(#linearGradient993)" d="M 115.03124,43.99999 C 42.382604,44 32.000014,54.35661 32.000004,126.9375 v 58.12499 c 0,72.5806 10.38261,82.9375 83.031236,82.9375 h 73.93752 C 261.6174,267.99999 272,257.64307 272,185.06249 V 126.9375 C 272,54.35661 261.6174,44 188.96875,44 Z"/>
  </clipPath>
  <filter id="filter931" width="1.023" height="1.025" x="-.01" y="-.01" style="color-interpolation-filters:sRGB">
   <feGaussianBlur stdDeviation=".423"/>
  </filter>
  <linearGradient id="linearGradient971" x1="184" x2="232" y1="76" y2="124" gradientTransform="translate(0,4)" gradientUnits="userSpaceOnUse" xlink:href="#linearGradient969"/>
  <linearGradient id="linearGradient969">
   <stop offset="0" style="stop-color:#000000;stop-opacity:0"/>
   <stop style="stop-color:#000000" offset=".49"/>
   <stop offset="1" style="stop-color:#000000;stop-opacity:0"/>
  </linearGradient>
  <linearGradient id="linearGradient1108" x1="296" x2="296" y1="-212" y2="236" gradientUnits="userSpaceOnUse" xlink:href="#linearGradient1013"/>
  <linearGradient id="linearGradient1013">
   <stop style="stop-color:#ffffff" offset="0"/>
   <stop offset=".125" style="stop-color:#ffffff;stop-opacity:0.09803922"/>
   <stop offset=".925" style="stop-color:#000000;stop-opacity:0.09803922"/>
   <stop style="stop-color:#000000;stop-opacity:0.49803922" offset="1"/>
  </linearGradient>
  <clipPath id="clipPath1082-3-3" clipPathUnits="userSpaceOnUse">
   <path style="fill:#8c59d9" d="M 361.9375,-212 C 507.2348,-212 528,-191.28677 528,-46.125 V 70.125 C 528,215.28618 507.2348,236 361.9375,236 H 214.0625 C 68.7652,236 48,215.28618 48,70.125 V -46.125 C 48,-191.28677 68.7652,-212 214.0625,-212 Z"/>
  </clipPath>
  <linearGradient id="linearGradient938" x1="32" x2="272" y1="156" y2="156" gradientTransform="matrix(-0.34202014,0.93969262,0.93969262,0.34202014,30.963035,-67.75648)" gradientUnits="userSpaceOnUse" xlink:href="#linearGradient4239"/>
  <linearGradient id="linearGradient4239">
   <stop style="stop-color:#ae3343" offset="0"/>
   <stop style="stop-color:#e97c86" offset="1"/>
  </linearGradient>
  <filter id="filter1013" width="1.046" height="1.05" x="-.02" y="-.03" style="color-interpolation-filters:sRGB">
   <feGaussianBlur stdDeviation="2.32"/>
  </filter>
  <linearGradient id="linearGradient866" x1="32" x2="272" y1="156" y2="156" gradientTransform="matrix(-0.29926763,0.80459841,0.82223109,0.29284987,27.788656,-23.449984)" gradientUnits="userSpaceOnUse" xlink:href="#linearGradient874"/>
  <linearGradient id="linearGradient868" x1="184" x2="232" y1="76" y2="124" gradientTransform="translate(0,4)" gradientUnits="userSpaceOnUse" xlink:href="#linearGradient969"/>
  <linearGradient id="linearGradient906" x1="32" x2="272" y1="156" y2="156" gradientTransform="matrix(-0.25651511,0.68965578,0.70476951,0.25101418,24.614276,14.247441)" gradientUnits="userSpaceOnUse" xlink:href="#linearGradient914"/>
  <linearGradient id="linearGradient908" x1="184" x2="232" y1="76" y2="124" gradientTransform="translate(0,4)" gradientUnits="userSpaceOnUse" xlink:href="#linearGradient969"/>
 </defs>
 <path style="opacity:0.2;filter:url(#filter1013)" d="m 162.53675,18.431977 c 72.64865,0 83.03125,10.356616 83.03125,82.937503 v 58.12501 c 0,72.58059 -10.3826,82.9375 -83.03125,82.9375 H 88.599254 c -72.648654,0 -83.0312541,-10.35691 -83.0312541,-82.9375 v -58.12501 c 0,-72.580887 10.3826001,-82.937503 83.0312541,-82.937503 z"/>
 <path d="m 88.599244,16.431982 c -72.648636,10e-6 -83.0312401,10.35661 -83.0312501,82.9375 v 58.125008 c 0,72.5806 10.3826241,82.9375 83.0312501,82.9375 h 73.937496 c 72.64864,0 83.03125,-10.35692 83.03125,-82.9375 V 99.369482 c 0,-1.00599 -0.01,-1.95528 -0.0137,-2.9375 l -89.00388,-80 z" style="fill:url(#linearGradient938)"/>
 <path d="M 230.90588,24.603857 36.230103,232.26011 c 12.45966,6.53045 31.491462,8.17188 60.369141,8.17188 h 73.937496 c 72.64864,0 83.03125,-10.35692 83.03125,-82.9375 V 99.369482 c 0,-43.730136 -3.77655,-64.867242 -22.66211,-74.765625 z" style="opacity:0.05;fill:#ffffff"/>
 <g clip-path="url(#clipPath989)" transform="translate(-26.432006,-27.568018)" style="enable-background:new">
  <path d="m 182.98242,44 c 0.29365,69.88348 11.37588,80 83.01758,80 h 5.98633 L 272,44 Z" style="opacity:0.1;filter:url(#filter931)"/>
  <path style="opacity:0.4;fill:url(#linearGradient971);filter:url(#filter975)" d="m 182.98242,48 c 0.29365,69.88348 11.37588,80 83.01758,80 h 5.98633 L 272,48 Z"/>
 </g>
 <path d="m 156.55041,16.431982 c 0.29365,69.88348 11.37588,80 83.01758,80 h 5.98633 z" style="fill:#faf8f6"/>
 <path style="fill:#5d5d5d" d="m 245.55432,96.431982 c -0.29365,-69.88348 -11.37588,-80 -83.01758,-80 h -5.98633 z"/>
 <path d="M 5.5683594 119.64844 L 5.5683594 157.49414 C 5.5683594 166.56672 5.7304583 174.6671 6.15625 181.89648 C 6.3691459 185.51118 6.6485151 188.90772 7.0058594 192.09961 C 7.3632037 195.29149 7.7990454 198.27982 8.3261719 201.07422 C 8.8532983 203.86862 9.4711171 206.47033 10.193359 208.89258 C 10.915602 211.31482 11.740902 213.5574 12.683594 215.63281 C 13.626286 217.70822 14.686525 219.61523 15.875 221.36914 C 17.063475 223.12305 18.380252 224.72392 19.839844 226.18164 C 21.299436 227.63937 22.902161 228.95376 24.658203 230.14062 C 26.414245 231.32749 28.324517 232.38678 30.402344 233.32812 C 32.48017 234.26947 34.725446 235.09332 37.150391 235.81445 C 39.575335 236.53559 42.179166 237.15343 44.976562 237.67969 C 47.773959 238.20595 50.763803 238.64134 53.958984 238.99805 C 57.154166 239.35475 60.555528 239.63323 64.173828 239.8457 C 71.410429 240.27066 79.518531 240.43164 88.599609 240.43164 L 142.91602 240.43164 C 206.48359 240.43164 215.56836 231.56405 215.56836 169.41797 L 215.56836 119.64844 C 215.56836 118.78708 215.55964 117.97577 215.55664 117.13477 L 137.67773 48.634766 L 78.220703 48.634766 C 14.653146 48.634774 5.5683681 57.502092 5.5683594 119.64844 z" style="fill:url(#linearGradient866)"/>
 <g style="enable-background:new" clip-path="url(#clipPath989)" transform="matrix(0.875,0,0,0.85623571,-22.432006,10.960813)">
  <path style="opacity:0.1;filter:url(#filter931)" d="m 182.98242,44 c 0.29365,69.88348 11.37588,80 83.01758,80 h 5.98633 L 272,44 Z"/>
  <path d="m 182.98242,48 c 0.29365,69.88348 11.37588,80 83.01758,80 h 5.98633 L 272,48 Z" style="opacity:0.4;fill:url(#linearGradient868);filter:url(#filter975)"/>
 </g>
 <path style="fill:#faf8f6" d="m 137.67761,48.635184 c 0.25694,59.836736 9.95389,68.498866 72.64038,68.498866 h 5.23804 z"/>
 <path d="m 215.55603,117.13405 c -0.25694,-59.83674 -9.9539,-68.498866 -72.64039,-68.498866 h -5.23803 z" style="fill:#5d5d5d"/>
 <path d="M 5.5683594 136.9043 L 5.5683594 157.49414 C 5.5683594 166.56672 5.7304583 174.6671 6.15625 181.89648 C 6.3691459 185.51118 6.6485151 188.90772 7.0058594 192.09961 C 7.3632037 195.29149 7.7990454 198.27982 8.3261719 201.07422 C 8.8532983 203.86862 9.4711171 206.47033 10.193359 208.89258 C 10.915602 211.31482 11.740902 213.5574 12.683594 215.63281 C 13.626286 217.70822 14.686525 219.61523 15.875 221.36914 C 17.063475 223.12305 18.380252 224.72392 19.839844 226.18164 C 21.299436 227.63937 22.902161 228.95376 24.658203 230.14062 C 26.414245 231.32749 28.324517 232.38678 30.402344 233.32812 C 32.48017 234.26947 34.725446 235.09332 37.150391 235.81445 C 39.575335 236.53559 42.179166 237.15343 44.976562 237.67969 C 47.773959 238.20595 50.763803 238.64134 53.958984 238.99805 C 57.154166 239.35475 60.555528 239.63323 64.173828 239.8457 C 71.410429 240.27066 79.518531 240.43164 88.599609 240.43164 L 123.29492 240.43164 C 177.78141 240.43164 185.56836 232.83057 185.56836 179.5625 L 185.56836 136.9043 C 185.56836 136.16599 185.56089 135.46891 185.55859 134.74805 L 118.80469 76.035156 L 67.841797 76.035156 C 13.355319 76.035163 5.5683669 83.636001 5.5683594 136.9043 z" style="fill:url(#linearGradient906)"/>
 <g clip-path="url(#clipPath989)" transform="matrix(0.75,0,0,0.73391632,-18.432006,43.74241)" style="enable-background:new">
  <path d="m 182.98242,44 c 0.29365,69.88348 11.37588,80 83.01758,80 h 5.98633 L 272,44 Z" style="opacity:0.1;filter:url(#filter931)"/>
  <path style="opacity:0.4;fill:url(#linearGradient908);filter:url(#filter975)" d="m 182.98242,48 c 0.29365,69.88348 11.37588,80 83.01758,80 h 5.98633 L 272,48 Z"/>
 </g>
 <path d="m 118.80481,76.034728 c 0.22023,51.288632 8.5319,58.713312 62.26318,58.713312 h 4.48975 z" style="fill:#faf8f6"/>
 <path style="fill:#5d5d5d" d="M 185.55774,134.74804 C 185.3375,83.459407 177.02582,76.034728 123.29455,76.034728 h -4.48974 z"/>
 <path style="opacity:0.4;fill:none;stroke:url(#linearGradient1108);stroke-width:8;stroke-linecap:round;stroke-linejoin:round" d="M 361.9375,-212 C 507.2348,-212 528,-191.28677 528,-46.125 V 70.125 C 528,215.28618 507.2348,236 361.9375,236 H 214.0625 C 68.7652,236 48,215.28618 48,70.125 V -46.125 C 48,-191.28677 68.7652,-212 214.0625,-212 Z" clip-path="url(#clipPath1082-3-3)" transform="matrix(0.5,0,0,0.5,-18.432006,122.43199)"/>
</svg>
